X:2
T:Aires De Pontevedra
T:(Contrafied)
R:reel
M:4/4
L:1/8
K:G
Q:116
EF   |  GFGE FDEF | GFGE FDEF | AFGE FDEF | GFGE FDFA |
        GFGE FDEF | GFGE FDEF | AFGE FDEF | GFGE FDFA |
        c4   cBce | dcBA GFGA | G4   GFGA | dcBA GFGA |
        F3 D FDFA | dcBA GFGA | E4   FAFD | EGE^C D3 A |
|:      d2A2 F2GA | BAGF E3 F | GAGF E2FG | AGFE D2A2 |
        d2A2 F2GA | BAGF E3 F | GFGA BAFD | AGE^C D3 A :||